app/content/themes/irontheme/images/general/water.svg

<svg width="36" height="36" viewBox="0 0 36 36" fill="none" xmlns="http://www.w3.org/2000/svg">
<g clip-path="url(#clip0)">
<path d="M11.3935 25.1972C17.1987 25.1972 20.3958 21.7871 20.3958 15.5947C20.3958 9.7971 12.1894 0.579351 11.8401 0.19048C11.7232 0.0688657 11.562 0 11.3935 0C11.225 0 11.0635 0.0688657 10.9469 0.19048C10.5976 0.579351 2.39111 9.7971 2.39111 15.5947C2.39111 21.7871 5.58824 25.1972 11.3935 25.1972ZM11.3935 1.50655C13.1116 3.52299 19.1955 10.986 19.1955 15.5947C19.1955 19.4278 17.8417 23.9969 11.3935 23.9969C4.9453 23.9969 3.59143 19.4278 3.59143 15.5947C3.59143 10.986 9.67506 3.52299 11.3935 1.50655Z" fill="url(#paint0_linear)"/>
<path d="M28.1978 26.3975C31.6305 26.3975 33.5992 24.1068 33.5992 20.1114C33.5992 16.3598 28.8393 11.2028 28.6371 10.9848C28.521 10.8676 28.3628 10.8016 28.1978 10.8016C28.0328 10.8016 27.8746 10.8676 27.7585 10.9848C27.5563 11.2028 22.7964 16.3598 22.7964 20.1114C22.7964 24.1068 24.7648 26.3975 28.1978 26.3975ZM28.1978 12.2997C29.3553 13.6465 32.3989 17.442 32.3989 20.1114C32.3989 23.4861 30.9856 25.1972 28.1978 25.1972C25.4101 25.1972 23.9967 23.4861 23.9967 20.1114C23.9967 17.442 27.04 13.6465 28.1978 12.2997Z" fill="url(#paint1_linear)"/>
<path d="M19.3457 24.1998C19.1927 24.3733 15.5947 28.4827 15.5947 31.1989C15.5947 34.2501 17.1262 36.0002 19.7958 36.0002C22.4652 36.0002 23.9969 34.2501 23.9969 31.1989C23.9969 28.4827 20.3989 24.3733 20.2459 24.1998C20.1287 24.0761 19.9661 24.0061 19.7958 24.0061C19.6256 24.0061 19.4626 24.0761 19.3457 24.1998ZM19.7958 34.7999C17.8052 34.7999 16.795 33.5881 16.795 31.1989C16.795 29.5675 18.6729 26.9119 19.7958 25.5285C20.9194 26.909 22.7966 29.5652 22.7966 31.1989C22.7966 33.5881 21.7865 34.7999 19.7958 34.7999Z" fill="url(#paint2_linear)"/>
<path d="M10.1334 22.7937C10.1534 22.7957 10.1733 22.7966 10.1935 22.7966C10.5132 22.7966 10.777 22.5458 10.7931 22.2263C10.8089 21.9069 10.5718 21.6312 10.2536 21.5992C8.99993 21.5362 7.83302 20.9404 7.04678 19.962C5.45056 17.8808 5.97921 14.5257 5.9839 14.4923C6.02756 14.1708 5.80778 13.8728 5.48777 13.8194C5.16777 13.7664 4.86329 13.9771 4.80058 14.2954C4.77391 14.4539 4.17874 18.1879 6.09028 20.687C7.07374 21.9362 8.546 22.7034 10.1334 22.7937Z" fill="url(#paint3_linear)"/>
<path d="M27.5977 23.9969C28.7051 23.981 29.761 23.5262 30.5332 22.7324C31.2016 21.8726 31.4434 20.7558 31.1902 19.6967C31.1286 19.3767 30.8233 19.1642 30.5018 19.2179C30.1803 19.2718 29.9605 19.5722 30.0068 19.8948C30.1906 20.6034 30.0493 21.3574 29.6215 21.9514C29.0785 22.4795 28.3549 22.7816 27.5977 22.7965C27.2663 22.7965 26.9976 23.0653 26.9976 23.3967C26.9976 23.7281 27.2663 23.9969 27.5977 23.9969Z" fill="url(#paint4_linear)"/>
<path d="M19.4636 32.4621C19.2764 32.3865 19.1319 32.2326 19.068 32.041C19.0044 31.8496 19.0279 31.6395 19.1325 31.4669C19.2805 31.1703 19.1603 30.8096 18.8635 30.6616C18.5669 30.5133 18.2065 30.6338 18.0582 30.9303C17.8114 31.3887 17.7648 31.9287 17.9292 32.4225C18.0939 32.9163 18.455 33.3204 18.9271 33.5393C19.2239 33.6876 19.5844 33.5672 19.7326 33.2703C19.8806 32.9737 19.7605 32.6133 19.4636 32.465V32.4621Z" fill="url(#paint5_linear)"/>
</g>
<defs>
<linearGradient id="paint0_linear" x1="20.3958" y1="12.5986" x2="2.39111" y2="12.5986" gradientUnits="userSpaceOnUse">
<stop stop-color="#2063B1"/>
<stop offset="1" stop-color="#3CBAFC"/>
</linearGradient>
<linearGradient id="paint1_linear" x1="33.5992" y1="18.5996" x2="22.7964" y2="18.5996" gradientUnits="userSpaceOnUse">
<stop stop-color="#2063B1"/>
<stop offset="1" stop-color="#3CBAFC"/>
</linearGradient>
<linearGradient id="paint2_linear" x1="23.9969" y1="30.0031" x2="15.5947" y2="30.0031" gradientUnits="userSpaceOnUse">
<stop stop-color="#2063B1"/>
<stop offset="1" stop-color="#3CBAFC"/>
</linearGradient>
<linearGradient id="paint3_linear" x1="10.7938" y1="18.3039" x2="4.69238" y2="18.3039" gradientUnits="userSpaceOnUse">
<stop stop-color="#2063B1"/>
<stop offset="1" stop-color="#3CBAFC"/>
</linearGradient>
<linearGradient id="paint4_linear" x1="31.2885" y1="21.6032" x2="26.9976" y2="21.6032" gradientUnits="userSpaceOnUse">
<stop stop-color="#2063B1"/>
<stop offset="1" stop-color="#3CBAFC"/>
</linearGradient>
<linearGradient id="paint5_linear" x1="19.796" y1="32.1005" x2="17.8325" y2="32.1005" gradientUnits="userSpaceOnUse">
<stop stop-color="#2063B1"/>
<stop offset="1" stop-color="#3CBAFC"/>
</linearGradient>
<clipPath id="clip0">
<rect width="36" height="36" fill="white"/>
</clipPath>
</defs>
</svg>

<svg width="36" height="36" viewBox="0 0 36 36" fill="none" xmlns="http://www.w3.org/2000/svg"><g clip-path="url(#clip0)"><path d="M11.393 25.197c5.806 0 9.003-3.41 9.003-9.602C20.396 9.797 12.189.579 11.84.19a.62.62 0 00-.893 0c-.35.39-8.556 9.607-8.556 15.405 0 6.192 3.197 9.602 9.002 9.602zm0-23.69c1.719 2.016 7.802 9.479 7.802 14.088 0 3.833-1.353 8.402-7.802 8.402-6.448 0-7.802-4.57-7.802-8.402 0-4.609 6.084-12.072 7.802-14.088z" fill="url(#paint0_linear)"/><path d="M28.198 26.398c3.433 0 5.401-2.291 5.401-6.287 0-3.751-4.76-8.908-4.962-9.126a.618.618 0 00-.878 0c-.203.218-4.963 5.375-4.963 9.126 0 3.996 1.969 6.287 5.402 6.287zm0-14.098c1.157 1.346 4.2 5.142 4.2 7.811 0 3.375-1.412 5.086-4.2 5.086-2.788 0-4.201-1.71-4.201-5.086 0-2.669 3.043-6.465 4.2-7.811z" fill="url(#paint1_linear)"/><path d="M19.346 24.2c-.153.173-3.751 4.283-3.751 6.999 0 3.051 1.531 4.801 4.2 4.801 2.67 0 4.202-1.75 4.202-4.801 0-2.716-3.598-6.826-3.751-7a.62.62 0 00-.9 0zm.45 10.6c-1.99 0-3.001-1.212-3.001-3.601 0-1.632 1.878-4.287 3-5.67 1.124 1.38 3.002 4.036 3.002 5.67 0 2.39-1.01 3.6-3.001 3.6z" fill="url(#paint2_linear)"/><path d="M10.133 22.794a.602.602 0 00.66-.568.6.6 0 00-.54-.627 4.397 4.397 0 01-3.206-1.637c-1.596-2.081-1.068-5.436-1.063-5.47a.6.6 0 00-1.183-.197c-.027.159-.622 3.893 1.29 6.392a5.547 5.547 0 004.042 2.107z" fill="url(#paint3_linear)"/><path d="M27.598 23.997a4.18 4.18 0 002.935-1.265c.669-.86.91-1.976.657-3.035a.6.6 0 00-1.183.198 2.462 2.462 0 01-.386 2.056 2.987 2.987 0 01-2.023.846.6.6 0 000 1.2z" fill="url(#paint4_linear)"/><path d="M19.464 32.462a.689.689 0 01-.331-.995.6.6 0 00-1.075-.537 1.89 1.89 0 00.87 2.61.6.6 0 10.536-1.075v-.003z" fill="url(#paint5_linear)"/></g><defs><linearGradient id="paint0_linear" x1="20.396" y1="12.599" x2="2.391" y2="12.599" gradientUnits="userSpaceOnUse"><stop stop-color="#2063B1"/><stop offset="1" stop-color="#3CBAFC"/></linearGradient><linearGradient id="paint1_linear" x1="33.599" y1="18.6" x2="22.796" y2="18.6" gradientUnits="userSpaceOnUse"><stop stop-color="#2063B1"/><stop offset="1" stop-color="#3CBAFC"/></linearGradient><linearGradient id="paint2_linear" x1="23.997" y1="30.003" x2="15.595" y2="30.003" gradientUnits="userSpaceOnUse"><stop stop-color="#2063B1"/><stop offset="1" stop-color="#3CBAFC"/></linearGradient><linearGradient id="paint3_linear" x1="10.794" y1="18.304" x2="4.692" y2="18.304" gradientUnits="userSpaceOnUse"><stop stop-color="#2063B1"/><stop offset="1" stop-color="#3CBAFC"/></linearGradient><linearGradient id="paint4_linear" x1="31.288" y1="21.603" x2="26.998" y2="21.603" gradientUnits="userSpaceOnUse"><stop stop-color="#2063B1"/><stop offset="1" stop-color="#3CBAFC"/></linearGradient><linearGradient id="paint5_linear" x1="19.796" y1="32.1" x2="17.832" y2="32.1" gradientUnits="userSpaceOnUse"><stop stop-color="#2063B1"/><stop offset="1" stop-color="#3CBAFC"/></linearGradient><clipPath id="clip0"><path fill="#fff" d="M0 0h36v36H0z"/></clipPath></defs></svg>
